svgs/solid/hexagon-vertical-nft-slanted.svg

<svg xmlns="http://www.w3.org/2000/svg" viewBox="0 0 512 512"><!--! Font Awesome Pro 6.2.0 by @fontawesome - https://fontawesome.com License - https://fontawesome.com/license (Commercial License) Copyright 2022 Fonticons, Inc. --><path d="M292.9 495.5c-22.3 12.9-49.7 12.9-72 0L68 407.2c-22.3-12.9-36-36.6-36-62.4V168.3c0-25.7 13.7-49.5 36-62.4L220.9 17.7c22.3-12.9 49.7-12.9 72 0l152.9 88.3c22.3 12.9 36 36.6 36 62.4V344.9c0 25.7-13.7 49.5-36 62.4L292.9 495.5zm11.1-372c0-5.7-3.1-11-8.1-13.9L248.1 82.3c-2-1.2-4.3-2-6.8-2.2c-.5 0-1-.1-1.4-.1l-.1 0c-3.3 0-6.3 1-8.8 2.6c-1.5 1-2.9 2.2-4 3.7c-1.2 1.5-2.1 3.3-2.6 5.2c-.4 1.6-.6 3.1-.6 4.7V256.6v144c0 8.8 7.2 16 16 16s16-7.2 16-16v-128h32c8.8 0 16-7.2 16-16s-7.2-16-16-16h-32v-117l24.2 13.8c10.7 6.1 23.9-1.6 23.9-13.9zm16 27.4c0 5.7 3.1 11 8.1 13.9l23.8 13.6V352.6c0 8.8 7.2 16 16 16s16-7.2 16-16V196.6l16.2 9.3c7.7 4.4 17.4 1.7 21.8-6s1.7-17.4-6-21.8l-72-41.1c-10.7-6.1-23.9 1.6-23.9 13.9zM175.8 128.6c-8.8 0-16 7.2-16 16V270L127 171.5c-2.5-7.4-10-12-17.7-10.7s-13.4 7.9-13.4 15.8v160c0 8.8 7.2 16 16 16s16-7.2 16-16V275.2l32.8 98.5c2.5 7.4 10 12 17.7 10.7s13.4-7.9 13.4-15.8v-224c0-8.8-7.2-16-16-16z"/></svg>

<svg xmlns="http://www.w3.org/2000/svg" viewBox="0 0 512 512"><!--! Font Awesome Pro 6.1.2 by @fontawesome - https://fontawesome.com License - https://fontawesome.com/license (Commercial License) Copyright 2022 Fonticons, Inc. --><path d="M220.9 17.65C243.2 4.785 270.6 4.785 292.9 17.65L445.8 105.9C468.1 118.8 481.8 142.6 481.8 168.3V344.9C481.8 370.6 468.1 394.4 445.8 407.2L292.9 495.5C270.6 508.4 243.2 508.4 220.9 495.5L68 407.2C45.72 394.4 32 370.6 32 344.9V168.3C32 142.6 45.72 118.8 68 105.9L220.9 17.65zM304 123.5C304 117.7 300.9 112.4 295.9 109.6L248.1 82.31C246.1 81.09 243.8 80.3 241.4 80.07C240.9 80.03 240.4 80 239.9 80H239.8C236.6 80 233.6 80.98 231 82.65C229.5 83.64 228.2 84.9 227 86.4C225.9 87.94 224.1 89.71 224.5 91.63C224 93.18 223.8 94.77 223.8 96.34V400.6C223.8 409.4 231 416.6 239.8 416.6C248.7 416.6 255.8 409.4 255.8 400.6V272.6H287.8C296.7 272.6 303.8 265.4 303.8 256.6C303.8 247.7 296.7 240.6 287.8 240.6H255.8V123.6L280.1 137.4C290.7 143.5 304 135.8 304 123.5H304zM320 150.9C320 156.6 323.1 161.9 328.1 164.8L351.8 178.4V352.6C351.8 361.4 359 368.6 367.8 368.6C376.7 368.6 383.8 361.4 383.8 352.6V196.6L400.1 205.9C407.7 210.3 417.5 207.6 421.9 199.9C426.3 192.3 423.6 182.5 415.9 178.1L343.9 137C333.3 130.9 320 138.6 320 150.9V150.9zM159.8 144.6V269.1L127 171.5C124.5 164.1 117 159.5 109.3 160.8C101.5 162 95.85 168.7 95.85 176.6V336.6C95.85 345.4 103 352.6 111.8 352.6C120.7 352.6 127.8 345.4 127.8 336.6V275.2L160.7 373.6C163.2 381.1 170.7 385.6 178.4 384.4C186.2 383.1 191.8 376.4 191.8 368.6V144.6C191.8 135.7 184.7 128.6 175.8 128.6C167 128.6 159.8 135.7 159.8 144.6V144.6z"/></svg>
